X:255
T:Billys a Bonny Lad
A:Wyresdale, Lancashire
B:E and J Winder, 1835-41
L:1/8
M:2/4
O:England
Z:Richard Robinson 
%%RRN:"a gud Reel"
%%TranscriptionNotes:Slightly edited for clarity
%%TUNEURL: http://www.leeds.ac.uk/music/Info/RRTuneBk/gettune/00000eae.html
%%ID:00000eae
K:D
fefd  | ceef | fefd  | g2 g(f/e/) | fefd  | ceeg | faec | d2 d2 ::
A>BAG | FDDF | A>BAc | d2 (cB)    | A>BAG | FDDg | faec | d2 d2 ::
